X:1
T:Whosoever Will
T:Philip Paul Bliss, 1870
T:Whosoever Will
T:Public Domain
T:Public Domain
C:Philip Paul Bliss, 1870
Z:Public Domain
%%score ( 1 2 ) ( 3 4 )
L:1/8
M:4/4
K:D
V:1 treble 
V:2 treble 
V:3 bass 
V:4 bass 
V:1
 [FA]>[GB] [FA][DF] D2 [Fd]2 | [GB]2 [Gd]>[GB] [FA]4 | [FA]>[GB] [FA][DF] D2 [DF]2 | %3
w: 1.~“Who- so- ev- er hear- eth,”|shout the sound! Spread|the bless- èd tid- ings all|
w: 2.~Who- so- ev- er com- eth|not de- lay, Now|the door is o- pen, en-|
w: 3.~“Who- so- ev- er will,” the|ise se- cure, “Who-|so- ev- er will,” for- ev-|
 [CE]>[B,D] [CE][DF] [CE]4 | [FA]>[GB] [FA][DF] D2 [Fd]2 | [GB]>[GB] [Gd]>[GB] [FA]4 | %6
w: world a- round; Spread the|joy- ful news wher- ev- er|man is found; “Who- so-|
w: while you may; Je- sus|is the true, the on- ly|Liv- ing Way; “Who- so-|
w: must en- dure; “Who- so-|ev- er will,” ’tis life for-|ev- er- more: “Who- so-|
 [CA]>[DB] [Ec][Fd] [Gd]2 [Ec]2 | [Fd]6 ||"^Refrain" [Ec]>[Ec] [Ec][Fd] [Ge]4 | %9
w: ev- er will may come.” *|||
w: ev- er will may come.” *|||
w: ev- er will may come.” *|||
 [Fd]>[Fd] [Gd][GB] [FA]4 | [DF]>[DF] [DF][FA] [GB][GA][GB][Gd] | [^Ge]2 [Gd]2 [Ac]4 | %12
w: |||
w: |||
w: |||
 [Fd]>[Fc] [Fd][GB] [FA]2 [DF]2 | [DG]>[DF] G[GA] [GB]4 | [CA]>[DB] [Ec][Fd] [Ge]2 [Ec]2 | [Fd]8 |] %16
w: ||||
w: ||||
w: ||||
V:2
 x4 D2 x2 | x8 | x4 D2 x2 | x8 | x8 | x8 | x8 | x6 || x8 | x8 | x8 | x8 | x8 | x2 G x5 | x8 | x8 |] %16
w: shout,||the||||||||||||||
w: need||ter||||||||||||||
w: prom-||er||||||||||||||
V:3
 [D,D]>[D,D] [D,D][D,A,] [F,A,]2 [D,A,]2 | G,2 [G,B,]>[G,D] [D,D]4 | %2
w: ~ ~ ~ ~ ~ ~|~ ~ ~ ~|
 [D,D]>[D,D] [D,D][D,A,] [F,A,]2 [D,A,]2 | A,>A, A,A, A,4 | %4
w: ~ ~ ~ ~ ~ ~|~ ~ ~ ~ ~|
 [D,A,]>[D,D] [D,D][D,A,] [F,A,]2 [D,A,]2 | G,>G, [G,B,]>[G,D] [D,D]4 | A,>A, A,A, A,2 A,2 | %7
w: ~ ~ ~ ~ ~ ~|~ ~ ~ ~ ~|~ “Who- so- ev- er will,|
 [D,A,]6 || A,>A, A,A, A,4 | [D,A,]>[D,A,] [D,B,][D,D] [D,D]4 | %10
w: the|pro- cla- ma- tion o-|a lov- ing Fa- ther,|
 [D,A,]>[D,A,] [D,A,][D,D] [G,D][G,D][G,D][G,B,] | [E,B,]2 [E,B,]2 A,4 | %12
w: calls the wan- derer home: “Who- so- ev-|er will, may|
 [D,A,]>[D,A,] [D,A,][D,C] [D,D]2 [D,A,]2 | [G,B,]>[G,B,] [G,B,][G,C] [G,D]4 | A,>A, A,A, A,2 A,2 | %15
w: |||
 [D,A,]8 |] %16
w: |
V:4
 x8 | G,2 x6 | x8 | A,>A, A,A, A,4 | x8 | x8 | A,>A, A,A, A,2 A,2 | x6 || A,>A, A,A, A,4 | x8 | %10
w: |~||~ ~ ~ ~ ~|||who- so- ev- er will,” Send||ver vale and hill; ’Tis||
 x8 | x4 A,4 | x8 | x8 | A,>A, A,A, A,2 A,2 | x8 |] %16
w: |come.”|||||

